src/img/icon-geo.svg

<svg width="16" height="16" viewBox="0 0 16 16" fill="none" xmlns="http://www.w3.org/2000/svg">
<path d="M8.00313 6.29819e-08C5.2394 6.29819e-08 3 2.23039 3 4.99312C3 9.77011 8.00313 16 8.00313 16C8.00313 16 13.0063 9.76911 13.0063 4.99312C13.0063 2.23139 10.7669 6.29819e-08 8.00313 6.29819e-08ZM8.00313 7.75585C6.51019 7.75585 5.30144 6.54609 5.30144 5.05416C5.30144 3.56223 6.51019 2.35247 8.00313 2.35247C9.49406 2.35247 10.7038 3.56223 10.7038 5.05416C10.7038 6.54609 9.49406 7.75585 8.00313 7.75585Z" fill="#DB063D"/>
</svg>

<svg width="16" height="16" viewBox="0 0 16 16" xmlns="http://www.w3.org/2000/svg" fill="none"><path d="M8.003 0c-2.764 0-5.003 2.23-5.003 4.993 0 4.777 5.003 11.007 5.003 11.007s5.003-6.231 5.003-11.007c0-2.762-2.239-4.993-5.003-4.993zm0 7.756c-1.493 0-2.702-1.21-2.702-2.702s1.209-2.702 2.702-2.702c1.491 0 2.701 1.21 2.701 2.702s-1.21 2.702-2.701 2.702z" fill="#DB063D"/></svg>
